X:1
T:Chinese Dance
T:Chinese Dance
T:Chinese Dance
T:The Nutcracker (suite), Op.71a
T:Pyotr Tchaikovksy
T:Public Domain
T:Public Domain
T:Public Domain
C:Pyotr Tchaikovksy
Z:Public Domain
%%score { 1 | ( 2 3 ) }
L:1/8
Q:1/4=126
M:4/4
K:Bb
V:1 treble nm="Piano"
V:2 bass 
V:3 bass 
V:1
"^Allegro Moderato."!mf! z8 | z4 z2!f! (7:4:7(b/c'/d'/e'/f'/g'/a'/) | %2
 !tenuto!b'2 !tenuto!a'!tenuto!g' !trill(!Tf'4({=e'f'} | %3
 .g') z !>!!5!f'2- f'(!5!d'/4!4!b/4!2!f/4!1!d/4!mf! .!2!B).!5!b | .!1!c.!5!c'.A.a .F.f.c.c' | %5
 .d.d'.B.b F z!f! (7:4:7(b/c'/d'/e'/f'/g'/a'/) | %6
 !tenuto!b'2 !tenuto!a'!tenuto!g' !trill(!Tf'4({=e'f'} | %7
 .g') z !>!!5!f'2- f'(!5!d'/4!4!b/4!2!f/4!1!d/4!mf!!mf! .!2!B).!5!b | .!1!c.!5!c'.A.a .F.f.c.c' | %9
 .d.d'.B.b .F z!f! (6:4:6(g'/f'/e'/d'/c'/b/) | %10
 !tenuto!a2 !tenuto!g!tenuto!a (5:4:5(f/g/f/=e/f/) !tenuto!g!tenuto!a | %11
 !tenuto!b z !>!B2- B(3(f/b/d'/ .f')!mf!.!2!F | .!1!G.!5!g.^G.^g .A.a.d.d' | %13
 .c.c'.B.b .F z!f! (6:4:6(g'/f'/e'/d'/c'/b/) | %14
 !tenuto!a2 !tenuto!g!tenuto!a (5:4:5(f/g/f/=e/f/) !tenuto!g!tenuto!a | %15
 !tenuto!b z B2- B(3(f/b/d'/ .f')!mf!.!2!F | .G.g.^G.^g .A.a.d.d' | %17
 .c.c'.B.b F z!f! (7:4:7(b/c'/d'/e'/f'/g'/a'/) | %18
 !tenuto!b'2 !tenuto!a'!tenuto!g' !trill(!Tf'4({=e'f'} | g') z (!>!f'2- f'd'/4b/4f/4d/4 .B).b | %20
 .c.c'.A.a .F.f.c.c' | .d.d'.B.b F z!f! (7:4:7(b/c'/d'/e'/f'/g'/a'/) | %22
 !tenuto!b'2 !tenuto!a'!tenuto!g' !trill(!Tf'4({=e'f'} | g') z (!>!f'2- f'd'/4b/4f/4d/4 .B).b | %24
 .c.c'.A.a .F.f.c.c' | .d.d'.B.b .F.f .b(f'/b/ | .c')(f'/c'/ .a)(f'/a/ .f)(f'/f/ .c')(f'/c'/ | %27
 .d')(f'/d'/ .b)(f'/b/ .f)(f'/f/ .c')(f'/c'/ | .d')(f'/d'/ .b)(f'/b/ .f)(f'/f/ .c')(f'/c'/ | %29
 .d')(f'/d'/ .b)(f'/b/ .f)(f'/f/ .c')(f'/c'/ |!ff! .d')(f'/d'/ .b)(f'/b/ .d')(f'/d'/ .b)(f'/b/ | %31
 .d')(f'/d'/ .b)(f'/b/) z !>![FBdf]!>!B, z |] %32
V:2
"^sempre staccato" .[D,,F,,].B,,,.[D,,F,,].B,,, .[D,,F,,].B,,,.[D,,F,,].B,,, | %1
 .[D,,F,,].B,,,.[D,,F,,].B,,, .[D,,F,,].B,,,.[D,,F,,].B,,, | %2
 .[D,,F,,].B,,,.[D,,F,,].B,,, .[D,,F,,].B,,,.[D,,F,,].B,,, | %3
 .[D,,F,,].B,,,.[D,,F,,].B,,, .[D,,F,,].B,,,.[D,,F,,].B,,, | %4
 .[E,,F,,]"^la  mano  sinistra   sempre".B,,,.[E,,F,,].B,,, .[E,,F,,].B,,,.[E,,F,,].B,,, | %5
 .[D,,F,,].B,,,.[D,,F,,].B,,, .[D,,F,,].B,,,.[D,,F,,].B,,, | %6
 .[D,,F,,].B,,,.[D,,F,,].B,,, .[D,,F,,].B,,,.[D,,F,,].B,,, | %7
 .[D,,F,,].B,,,.[D,,F,,].B,,, .[D,,F,,].B,,,.[D,,F,,].B,,, | %8
 .[E,,F,,].B,,,.[E,,F,,].B,,, .[E,,F,,].B,,,.[E,,F,,].B,,, | %9
 .[D,,F,,].B,,,.[D,,F,,].B,,, .[D,,F,,].B,,,.[D,,F,,].B,,, | %10
 .[E,,F,,].B,,,.[E,,F,,].B,,, .[E,,F,,].B,,,.[E,,F,,].B,,, | %11
 .[D,,F,,].B,,,.[D,,F,,].B,,, .[D,,F,,].B,,,.[D,,F,,].B,,, | %12
 .[E,,F,,].B,,,.[E,,F,,].B,,, .[E,,F,,].B,,,.[E,,F,,].B,,, | %13
 .[D,,F,,].B,,,.[D,,F,,].B,,, .[D,,F,,].B,,,.[D,,F,,].B,,, | %14
 .[E,,F,,].B,,,.[E,,F,,].B,,, .[E,,F,,].B,,,.[E,,F,,].B,,, | %15
 .[D,,F,,].B,,,.[D,,F,,].B,,, .[D,,F,,].B,,,.[D,,F,,].B,,, | %16
 .[E,,F,,].B,,,.[E,,F,,].B,,, .[E,,F,,].B,,,.[E,,F,,].B,,, | %17
 .[D,,F,,].B,,,.[D,,F,,].B,,, .[D,,F,,].B,,,.[D,,F,,].B,,, | %18
!mf! (B,,/D,/F,/B,/) (B,,/D,/F,/B,/) (B,,/D,/F,/B,/) (B,,/D,/F,/B,/) | %19
 (B,,/D,/F,/B,/) (B,,/D,/F,/B,/) (B,,/D,/F,/B,/) (B,,/D,/F,/B,/) | %20
 (B,,/E,/F,/A,/) (B,,/E,/F,/A,/) (B,,/E,/F,/A,/) (B,,/E,/F,/A,/) | %21
 (B,,/D,/F,/B,/) (B,,/D,/F,/B,/) (B,,/D,/F,/B,/) (B,,/D,/F,/B,/) | %22
!mf! (B,,/D,/F,/B,/) (B,,/D,/F,/B,/) (B,,/D,/F,/B,/) (B,,/D,/F,/B,/) | %23
 (B,,/D,/F,/B,/) (B,,/D,/F,/B,/) (B,,/D,/F,/B,/) (B,,/D,/F,/B,/) | %24
 (B,,/E,/F,/A,/) (B,,/E,/F,/A,/) (B,,/E,/F,/A,/) (B,,/E,/F,/A,/) | %25
 (B,,/D,/F,/B,/) (B,,/D,/F,/B,/) (B,,/D,/F,/B,/) (B,,/D,/F,/B,/) | %26
"^cresc." (B,,/E,/F,/A,/) (B,,/E,/F,/A,/) (B,,/E,/F,/A,/) (B,,/E,/F,/A,/) | %27
 (B,,/D,/F,/B,/) (B,,/D,/F,/B,/) (B,,/E,/F,/A,/) (B,,/E,/F,/A,/) | %28
 (B,,/D,/F,/B,/) (B,,/D,/F,/B,/) (B,,/E,/F,/A,/) (B,,/E,/F,/A,/) | %29
 (B,,/D,/F,/B,/) (B,,/D,/F,/B,/) (B,,/E,/F,/A,/) (B,,/E,/F,/A,/) | %30
 (B,,/D,/F,/B,/) (B,,/D,/F,/B,/) (B,,/D,/F,/B,/) (B,,/D,/F,/B,/) | %31
 (B,,/D,/F,/B,/) (B,,/D,/F,/B,/) z !>![B,,D,F,]!>![B,,,B,,] z |] %32
V:3
 x8 | x8 | x8 | x8 | x8 | x8 | x8 | x8 | x8 | x8 | x8 | x8 | x8 | x8 | x8 | x8 | x8 | x8 | %18
 B,,/ x3/2 B,,/ x3/2 B,,/ x3/2 B,,/ x3/2 | B,,/ x3/2 B,,/ x3/2 B,,/ x3/2 B,,/ x3/2 | %20
 B,,/ x3/2 B,,/ x3/2 B,,/ x3/2 B,,/ x3/2 | B,,/ x3/2 B,,/ x3/2 B,,/ x3/2 B,,/ x3/2 | %22
 B,,/ x3/2 B,,/ x3/2 B,,/ x3/2 B,,/ x3/2 | B,,/ x3/2 B,,/ x3/2 B,,/ x3/2 B,,/ x3/2 | %24
 B,,/ x3/2 B,,/ x3/2 B,,/ x3/2 B,,/ x3/2 | B,,/ x3/2 B,,/ x3/2 B,,/ x3/2 B,,/ x3/2 | %26
 B,,/ x3/2 B,,/ x3/2 B,,/ x3/2 B,,/ x3/2 | B,,/ x3/2 B,,/ x3/2 B,,/ x3/2 B,,/ x3/2 | %28
 B,,/ x3/2 B,,/ x3/2 B,,/ x3/2 B,,/ x3/2 | B,,/ x3/2 B,,/ x3/2 B,,/ x3/2 B,,/ x3/2 | %30
 B,,/ x3/2 B,,/ x3/2 B,,/ x3/2 B,,/ x3/2 | B,,/ x3/2 B,,/ x11/2 |] %32

